X:627
T:Que te quera (CT 050)
C:Tradicional
S:Msica Tradicional Asturiana, (C) Tello & Tito. Asturies, 2001.
S:http://pagina.de/MusTradAst <telloytito@asturies.org>
N:Cancin de empleo indeterminado, dictada por Faustino Garca Martnez, de cincuenta aos, de Llanuces, ayuntamiento de Quirs.
A:Asturies
O:Llanuces (Quirs)
Z:Cancioneru de Torner 050
M:6/8
L:1/8
Q:3/8=88
K:C
GAB
|c2 A-A2 z|d2 d ded|B2 G GAB|
c2 A-A2 z|d2 d ded|(B>A) A-A B/c/B/A/|G3 GAB|c2 B-B AA|G3 z3||
W:Que te quera,
W:por San Juan
W:hizo un ao que te quera
W:y ahora estoy ms firme,si,
W:morena, si,
W:que el primer da.
W:Ai, ai, ai!
W:
